components/icons/documents.svg

<svg width="14" height="24" viewBox="0 0 14 24" fill="none" xmlns="http://www.w3.org/2000/svg">
<g clip-path="url(#clip0_716_2946)">
<path fill-rule="evenodd" clip-rule="evenodd" d="M10.1786 2H3.21429C2.93012 2 2.6576 2.11288 2.45667 2.31381C2.25574 2.51475 2.14286 2.78727 2.14286 3.07143V19.1429C2.14286 19.427 2.25574 19.6995 2.45667 19.9005C2.6576 20.1014 2.93012 20.2143 3.21429 20.2143H13.9286C14.2127 20.2143 14.4853 20.1014 14.6862 19.9005C14.8871 19.6995 15 19.427 15 19.1429V6.82143L10.1786 2ZM10.1786 3.60714L13.3929 6.82143H10.7143C10.5722 6.82143 10.4359 6.76499 10.3355 6.66452C10.235 6.56406 10.1786 6.42779 10.1786 6.28571V3.60714ZM4 8H13V9H4V8ZM4 11H13V12H4V11ZM4 14H13V15H4V14ZM4 17H13V18H4V17Z" fill="black"/>
<path d="M0 5.21429H1.07143V19.6786C1.07143 20.1048 1.24075 20.5136 1.54215 20.815C1.84355 21.1164 2.25233 21.2857 2.67857 21.2857H12.8571V22.3571H2.67857C1.96817 22.3571 1.28686 22.0749 0.784535 21.5726C0.282206 21.0703 0 20.389 0 19.6786V5.21429Z" fill="black"/>
</g>
<defs>
<clipPath id="clip0_716_2946">
<rect width="14" height="24" fill="white"/>
</clipPath>
</defs>
</svg>

<svg width="14" height="24" fill="none" xmlns="http://www.w3.org/2000/svg"><g clip-path="url(#a)" fill="#000"><path fill-rule="evenodd" clip-rule="evenodd" d="M10.179 2H3.214a1.071 1.071 0 0 0-1.071 1.071v16.072a1.072 1.072 0 0 0 1.071 1.071H13.93A1.072 1.072 0 0 0 15 19.143V6.82L10.179 2Zm0 1.607 3.214 3.214h-2.679a.536.536 0 0 1-.535-.535V3.607ZM4 8h9v1H4V8Zm0 3h9v1H4v-1Zm0 3h9v1H4v-1Zm0 3h9v1H4v-1Z"/><path d="M0 5.214h1.071V19.68a1.607 1.607 0 0 0 1.608 1.607h10.178v1.071H2.68A2.679 2.679 0 0 1 0 19.68V5.214Z"/></g><defs><clipPath id="a"><path fill="#fff" d="M0 0h14v24H0z"/></clipPath></defs></svg>
